dist/icons/svgs/scale-balanced-solid.svg

<svg xmlns="http://www.w3.org/2000/svg" width="24" height="24" fill="currentcolor" class="icon-scale-balanced-solid" viewBox="0 0 24 24">
  <path d="M16.0002 3.25H21.0002C21.6642 3.25 22.2502 3.83594 22.2502 4.5C22.2502 5.20312 21.6642 5.75 21.0002 5.75H16.5471C16.3517 6.76562 15.6486 7.625 14.7502 8.01562V19.5H21.0002C21.6642 19.5 22.2502 20.0859 22.2502 20.75C22.2502 21.4531 21.6642 22 21.0002 22H13.5002H6.00018C5.29705 22 4.75018 21.4531 4.75018 20.75C4.75018 20.0859 5.29705 19.5 6.00018 19.5H12.2502V8.01562C11.3127 7.58594 10.6096 6.76562 10.4142 5.75H6.00018C5.29705 5.75 4.75018 5.20312 4.75018 4.5C4.75018 3.83594 5.29705 3.25 6.00018 3.25H11.0002C11.5471 2.50781 12.4455 2 13.5002 2C14.5158 2 15.4142 2.50781 16.0002 3.25ZM18.1486 14.5H23.8127L21.0002 9.65625L18.1486 14.5ZM21.0002 18.25C18.5392 18.25 16.4689 16.9219 16.0783 15.2031C15.9611 14.7734 16.1174 14.3047 16.3127 13.9141L20.0236 7.54688C20.2189 7.23438 20.6096 7 21.0002 7C21.3517 7 21.7424 7.23438 21.9377 7.54688L25.6486 13.9141C25.883 14.3047 26.0002 14.7734 25.9221 15.2031C25.4924 16.9219 23.4221 18.25 21.0002 18.25ZM5.92205 9.65625L3.10955 14.5H8.77361L5.92205 9.65625ZM1.00018 15.2031C0.922053 14.7734 1.03924 14.3047 1.27362 13.9141L4.98455 7.54688C5.17986 7.23438 5.57049 7 5.92205 7C6.31268 7 6.7033 7.23438 6.89861 7.54688L10.6096 13.9141C10.8049 14.3047 10.9611 14.7734 10.8439 15.2031C10.4533 16.9219 8.38299 18.25 5.92205 18.25C3.46111 18.25 1.42987 16.9219 1.00018 15.2031Z"/>
</svg>

<svg xmlns="http://www.w3.org/2000/svg" width="24" height="24" fill="currentColor" class="icon-scale-balanced-solid" viewBox="0 0 24 24">
  <path d="M16 3.25h5c.664 0 1.25.586 1.25 1.25 0 .703-.586 1.25-1.25 1.25h-4.453a3.14 3.14 0 0 1-1.797 2.266V19.5H21c.664 0 1.25.586 1.25 1.25 0 .703-.586 1.25-1.25 1.25H6c-.703 0-1.25-.547-1.25-1.25 0-.664.547-1.25 1.25-1.25h6.25V8.016c-.937-.43-1.64-1.25-1.836-2.266H6c-.703 0-1.25-.547-1.25-1.25 0-.664.547-1.25 1.25-1.25h5A3.09 3.09 0 0 1 13.5 2c1.016 0 1.914.508 2.5 1.25m2.15 11.25h5.664L21 9.656zM21 18.25c-2.46 0-4.531-1.328-4.922-3.047-.117-.43.04-.898.235-1.289l3.71-6.367C20.22 7.234 20.61 7 21 7c.352 0 .742.234.938.547l3.71 6.367c.235.39.352.86.274 1.29-.43 1.718-2.5 3.046-4.922 3.046M5.922 9.656 3.11 14.5h5.664zM1 15.203c-.078-.43.04-.898.274-1.289l3.71-6.367C5.18 7.234 5.57 7 5.923 7c.39 0 .781.234.977.547l3.71 6.367c.196.39.352.86.235 1.29-.39 1.718-2.461 3.046-4.922 3.046S1.43 16.922 1 15.203"/>
</svg>
